X: 26924
T: Miss Admiral Gordon's
R: strathspey
M: 4/4
K: Amajor
E|A/A/A A<A A>E A<f|e<cB>A F2 F>E|A/A/A AA A>E A<f|e>f a<c e2 e>f|
e>f a<c e<cB>A|B>c d/c/B/A/ F2 FE|A/A/A AA A>E A<f|e<c B>c A2 A E||
C>E A>E F>E A>E|c>e d/c/B/A/ F2 FE|C>E A>E F>E A>E|c>d e/f/g/a/ e2 e>f|
a>gf>e f>ed>c|B>c d/c/B/A/ F2 FE|A/A/A AA A>E A<f|e<c B>c A2 A||

